X:6201
T:Speed the Plough
O:england
C:Traditional
N:From the Fiddler's Tune Book
Q:1/4=140
M:4/4
L:1/8
K:A
(3(EFG)|ABcd efec|eaec efec|dfdB cecA|
Bcdc BGEG|ABcd efec|eaec efec|dece BeAe|
EGBG A2|


